!!!!SEGMENT: pl-cz--iii-348--002_kobierkowicz-jozef--salve-puelle-centis.krn
!!!cenid: 17xx:925
!!!COM: Kobierkowicz, Józef
!!!COM-rismID: pe30017725
!!!CDT: <1721->=1735
!!!CNT: Polish
!!!OTL: Salve puelle centis
!!!PDT:
!!!AGN: Sacred
!!!YEC: Copyright 2022 Narodowy Instytut Fryderyka Chopina (https://polishscores.org)
!!!YEM: License CC-BY-4.0 (https://creativecommons.org/licenses/by/4.0)
!!!SMS-siglum: PL-CZ
!!!SMS-shelfmark: III-348
!!!SMS-shelfwork: 002 W
!!!SMS-variant:
!!!SMS-altvar:
!!!NIFC-rismSourceID: 300237569
!!!NIFC-rismChildID: 300237571
!!!NIFC-islandoraID: pl-cz:37803
!!!URL-pdf-islandora: https://repozytorium.nifc.pl/islandora/object/pl-cz%3A37803/datastream/PDF/view
!!!URL-scan: https://polish.musicsources.pl/pl/lokalizacje/galeria/rekopisy/6909/1 @EN{Scan on Polish Music Sources Website} @PL{Skany w portalu Dziedzictwo Muzyki Polskiej w otwartym dostępie}
!!!IIIF:
!!!ONB-nifc: UWAGA: Caelum gaude terra plaude i Salve puelle centis to osobne utwory
!!!AIN: 1 alto 1 organ 1 tenor 1 viole 2 violn
!!!key: A
**kern	**fba	**kern	**fba	**dynam	**kern	**dynam	**kern	**dynam	**kern	**text	**kern	**text
*	*	*group2	*	*	*group2	*	*group2	*	*group1	*	*group1	*
*part6	*	*part5	*	*	*part4	*	*part3	*	*part2	*	*part1	*
*staff6	*	*staff5	*	*	*staff4	*	*staff3	*	*staff2	*	*staff1	*
*>[A,B,A]	*	*>[A,B,A]	*	*	*>[A,B,A]	*	*>[A,B,A]	*	*>[A,B,A]	*	*>[A,B,A]	*
*>A	*	*>A	*	*	*>A	*	*	*	*>A	*	*>A	*
*I"Organo	*	*I"Violone	*	*	*I"Violino 2do.	*	*I"Violino Primo	*	*I"Canto.	*	*I"Baſso	*
*mI"Organo	*	*mI"Violone	*	*	*mI"Violino II	*	*mI"Violino I	*	*mI"Tenore	*	*mI"Alto	*
*I'org	*	*I'vlne	*	*	*I'vl 2	*	*I'vl 1	*	*I'S	*	*I'B	*
*	*	*	*	*	*	*	*	*	*mI'T	*	*mI'A	*
*Iorgan	*	*Iviole	*	*	*Ivioln	*	*Ivioln	*	*Itenor	*	*Ialto	*
*ICklav	*	*ICstr	*	*	*ICstr	*	*ICstr	*	*ICvox	*	*ICvox	*
*clefF4	*	*clefF4	*	*	*clefG2	*	*clefG2	*	*clefC4	*	*clefC3	*
*	*	*	*	*	*	*	*	*	*mclefGv2	*	*mclefG2	*
*A:	*	*A:	*	*	*A:	*	*A:	*	*A:	*	*A:	*
*k[f#c#g#]	*	*k[f#c#g#]	*	*	*k[f#c#g#]	*	*k[f#c#g#]	*	*k[f#c#g#]	*	*k[f#c#g#]	*
*M6/4	*	*M6/4	*	*	*M6/4	*	*M6/4	*	*M6/4	*	*M6/4	*
=1	=1	=1	=1	=1	=1	=1	=1	=1	=1	=1	=1	=1
!	!	!	!	!	!	!	!	!	!LO:TX:t=P:problem=Canto w kluczu tenorowym:mod=	!	!LO:TX:t=P:problem=Basso w kluczu altowym:mod=	!
4AA/	.	4AA/	.	.	1.r	.	4ee\	.	00.r	.	00.r	.
4BB/	3	4BB/	.	.	.	.	8dd\L	.	.	.	.	.
.	.	.	.	.	.	.	8cc#\	.	.	.	.	.
4C#/	6	4C#/	.	.	.	.	8b\	.	.	.	.	.
.	.	.	.	.	.	.	8a\J	.	.	.	.	.
4BB/	6	4BB/	.	.	.	.	4g#/	.	.	.	.	.
4AA/	.	4AA/	.	.	.	.	4a/	.	.	.	.	.
4r	.	4r	.	.	.	.	4r	.	.	.	.	.
=2	=2	=2	=2	=2	=2	=2	=2	=2	=2	=2	=2	=2
!LO:MO:mod=!null:null	!	!LO:MO:mod=!null:null	!	!	!	!	!	!	!	!	!	!
!LO:N:vis=2	!	!LO:N:vis=2	!	!	!	!	!LO:TX:a:t=1:mod=	!	!	!	!	!
2.r	.	2.r	.	.	4ff#\	.	1.r	.	.	.	.	.
.	.	.	.	.	4gg#\	.	.	.	.	.	.	.
.	.	.	.	.	8aa\L	.	.	.	.	.	.	.
.	.	.	.	.	8dd\J	.	.	.	.	.	.	.
4F#\	6	4F#\	.	.	4.dd\	.	.	.	.	.	.	.
4G#\	6 5	4G#\	.	.	.	.	.	.	.	.	.	.
.	.	.	.	.	8cc#\	.	.	.	.	.	.	.
4A\	.	4A\	.	.	4cc#\	.	.	.	.	.	.	.
=3	=3	=3	=3	=3	=3	=3	=3	=3	=3	=3	=3	=3
4A\	.	4A\	.	.	8r	.	8r	.	.	.	.	.
.	.	.	.	.	16a/LL	.	16cc#\LL	.	.	.	.	.
.	.	.	.	.	16b/JJ	.	16dd\JJ	.	.	.	.	.
8r	.	8r	.	.	4cc#\	.	4ee\	.	.	.	.	.
16AA/LL	.	16AA/LL	.	.	.	.	.	.	.	.	.	.
16BB/JJ	.	16BB/JJ	.	.	.	.	.	.	.	.	.	.
8C#/L	.	8C#/L	.	.	4r	.	4r	.	.	.	.	.
8AA/J	.	8AA/J	.	.	.	.	.	.	.	.	.	.
4E\	7	4E\	.	.	8r	.	8r	.	.	.	.	.
.	.	.	.	.	16g#/LL	.	16b\LL	.	.	.	.	.
.	.	.	.	.	16a/JJ	.	16cc#\JJ	.	.	.	.	.
8r	.	8r	.	.	4b/	.	4dd\	.	.	.	.	.
16BB/LL	.	16BB/LL	.	.	.	.	.	.	.	.	.	.
16C#/JJ	.	16C#/JJ	.	.	.	.	.	.	.	.	.	.
8D/L	.	8D/L	.	.	4r	.	4r	.	.	.	.	.
8BB/J	.	8BB/J	.	.	.	.	.	.	.	.	.	.
=4	=4	=4	=4	=4	=4	=4	=4	=4	=4	=4	=4	=4
4AA/	.	4AA/	.	.	8a\L	.	8cc#\L	.	.	.	.	.
.	.	.	.	.	16b\L	.	16dd\L	.	.	.	.	.
.	.	.	.	.	16cc#\JJ	.	16ee\JJ	.	.	.	.	.
4r	.	4r	.	.	8cc#\L	.	8ee\L	.	.	.	.	.
.	.	.	.	.	16b\L	.	16dd\L	.	.	.	.	.
.	.	.	.	.	16a\JJ	.	16cc#\JJ	.	.	.	.	.
4r	.	4r	.	.	8cc#\L	.	8ee\L	.	.	.	.	.
.	.	.	.	.	16b\L	.	16dd\L	.	.	.	.	.
.	.	.	.	.	16a\JJ	.	16cc#\JJ	.	.	.	.	.
4E\	7	4E\	.	.	8b/L	.	8dd\L	.	.	.	.	.
.	.	.	.	.	8a/	.	8cc#\	.	.	.	.	.
4r	.	4r	.	.	8b/	.	8dd\	.	.	.	.	.
.	.	.	.	.	8a/J	.	8cc#\J	.	.	.	.	.
4r	.	4r	.	.	4g#/	.	4b/	.	.	.	.	.
=5	=5	=5	=5	=5	=5	=5	=5	=5	=5	=5	=5	=5
!	!	!	!	!LO:DY:t= :mod=%s	!	!	!	!	!	!	!	!
!	!	!	!	!LO:MO:mod=!LO&colon;DY&colon;ed=brack	!	!	!	!	!	!	!	!
!	!	!	!	!null	!	!LO:DY:a:t=piano:mod=%s	!	!LO:DY:a:t=piano:mod=%s	!	!	!	!
4A\	.	4A\	.	p	8a\L	p	8c#/L	p	00.r	.	00.r	.
.	.	.	.	.	16b\L	.	16d/L	.	.	.	.	.
.	.	.	.	.	16cc#\JJ	.	16e/JJ	.	.	.	.	.
4r	.	4r	.	.	8cc#\L	.	8e/L	.	.	.	.	.
.	.	.	.	.	16b\L	.	16d/L	.	.	.	.	.
.	.	.	.	.	16a\JJ	.	16c#/JJ	.	.	.	.	.
4r	.	4r	.	.	8cc#\L	.	8e/L	.	.	.	.	.
.	.	.	.	.	16b\L	.	16d/L	.	.	.	.	.
.	.	.	.	.	16a\JJ	.	16c#/JJ	.	.	.	.	.
4E\	7	4E\	.	.	8b/L	.	8d/L	.	.	.	.	.
.	.	.	.	.	8a/	.	8c#/	.	.	.	.	.
4r	.	4r	.	.	8b/	.	8d/	.	.	.	.	.
.	.	.	.	.	8a/J	.	8c#/J	.	.	.	.	.
4r	.	4r	.	.	4g#/	.	4B/	.	.	.	.	.
=6	=6	=6	=6	=6	=6	=6	=6	=6	=6	=6	=6	=6
!	!	!	!	!LO:DY:t= :mod=%s	!	!	!	!	!	!	!	!
!	!	!	!	!LO:MO:mod=!LO&colon;DY&colon;ed=brack	!LO:MO:mod=!null:null	!	!	!	!	!	!	!
!	!	!	!	!null	!LO:N:vis=2	!LO:DY:t=forte:mod= 	!	!LO:DY:t=forte:mod=%s	!	!	!	!
4A\	.	4A\	.	f	2.r	f	8aa\	f	.	.	.	.
.	.	.	.	.	.	.	4ee\	.	.	.	.	.
4A\	.	4A\	.	.	.	.	.	.	.	.	.	.
.	.	.	.	.	.	.	4cc#\	.	.	.	.	.
4A\	.	4A\	.	.	.	.	.	.	.	.	.	.
.	.	.	.	.	.	.	8a/	.	.	.	.	.
!	!	!	!	!	!	!LO:DY:t= :mod=%s	!	!	!	!	!	!
4d\	7	4d\	.	.	8ccc#\	f	2f#/	.	.	.	.	.
.	.	.	.	.	4aa\	.	.	.	.	.	.	.
4d\	.	4d\	.	.	.	.	.	.	.	.	.	.
.	.	.	.	.	4ff#\	.	.	.	.	.	.	.
4d\	.	4d\	.	.	.	.	4r	.	.	.	.	.
.	.	.	.	.	8dd\	.	.	.	.	.	.	.
=7	=7	=7	=7	=7	=7	=7	=7	=7	=7	=7	=7	=7
4G#\	7	4G#\	.	.	2b/	.	8ff#\	.	.	.	.	.
.	.	.	.	.	.	.	4dd\	.	.	.	.	.
4G#\	.	4G#\	.	.	.	.	.	.	.	.	.	.
.	.	.	.	.	.	.	4b/	.	.	.	.	.
4G#\	.	4G#\	.	.	4r	.	.	.	.	.	.	.
.	.	.	.	.	.	.	8g#/	.	.	.	.	.
4c#\	7	4c#\	.	.	8bb\	.	2e/	.	.	.	.	.
.	.	.	.	.	4gg#\	.	.	.	.	.	.	.
4c#\	.	4c#\	.	.	.	.	.	.	.	.	.	.
.	.	.	.	.	4ee\	.	.	.	.	.	.	.
4c#\	.	4c#\	.	.	.	.	4r	.	.	.	.	.
.	.	.	.	.	8cc#\	.	.	.	.	.	.	.
=8	=8	=8	=8	=8	=8	=8	=8	=8	=8	=8	=8	=8
4F#\	7	4F#\	.	.	2a/	.	8ee\	.	.	.	.	.
.	.	.	.	.	.	.	4cc#\	.	.	.	.	.
4F#\	.	4F#\	.	.	.	.	.	.	.	.	.	.
.	.	.	.	.	.	.	4a/	.	.	.	.	.
4F#\	.	4F#\	.	.	4r	.	.	.	.	.	.	.
.	.	.	.	.	.	.	8f#/	.	.	.	.	.
4B\	7	4B\	.	.	8aa\	.	2d/	.	.	.	.	.
.	.	.	.	.	4ff#\	.	.	.	.	.	.	.
4B\	.	4B\	.	.	.	.	.	.	.	.	.	.
.	.	.	.	.	4dd\	.	.	.	.	.	.	.
*	*	*custos:E	*	*	*	*	*	*	*	*	*	*
4B\	.	4B\	.	.	.	.	4r	.	.	.	.	.
*	*	*	*	*	*custos:g#	*	*	*	*	*	*	*
.	.	.	.	.	8b/	.	.	.	.	.	.	.
!	!	!LO:LB:g=original	!	!	!LO:LB:g=original	!	!LO:LB:g=original	!	!	!	!	!
=9	=9	=9	=9	=9	=9	=9	=9	=9	=9	=9	=9	=9
4E\	7	4E\	.	.	2g#/	.	8dd\	.	00.r	.	00.r	.
.	.	.	.	.	.	.	4b/	.	.	.	.	.
4E\	.	4E\	.	.	.	.	.	.	.	.	.	.
.	.	.	.	.	.	.	4g#/	.	.	.	.	.
*custos:AA	*	*	*	*	*	*	*	*	*	*	*	*
4E\	.	4E\	.	.	4r	.	.	.	.	.	.	.
.	.	.	.	.	.	.	8e/	.	.	.	.	.
!LO:LB:g=original	!	!	!	!	!	!	!	!	!	!	!	!
4AA|>/	.	4AA/	.	.	8cc#\L	.	8aa\L	.	.	.	.	.
.	.	.	.	.	8cc#\J	.	8ee\J	.	.	.	.	.
4AA|>/	.	4AA/	.	.	4cc#\	.	4ee\	.	.	.	.	.
4AA|>/	.	4AA/	.	.	4dd\	.	4ff#\	.	.	.	.	.
=10	=10	=10	=10	=10	=10	=10	=10	=10	=10	=10	=10	=10
4AA|>/	.	4AA/	.	.	4dd\	.	4ff#\	.	.	.	.	.
!	!	!	!	!	!LO:MO:mod=*null:null	!	!LO:MO:mod=*null:null	!	!	!	!	!
*	*	*	*	*	*2\right	*	*2\right	*	*	*	*	*
4AA|>/	.	4AA/	.	.	2ee\	.	2ggn\	.	.	.	.	.
4AA|>/	.	4AA/	.	.	.	.	.	.	.	.	.	.
4AA|>/	.	4AA/	.	.	8dd\L	.	8ff#\L	.	.	.	.	.
.	.	.	.	.	8cc#\J	.	8ee\J	.	.	.	.	.
4AA|>/	.	4AA/	.	.	2dd\	.	2ff#\	.	.	.	.	.
4AA|>/	.	4AA/	.	.	.	.	.	.	.	.	.	.
=11	=11	=11	=11	=11	=11	=11	=11	=11	=11	=11	=11	=11
!	!	!	!	!LO:DY:t= :mod=%s	!	!	!	!	!	!	!	!
!	!	!	!	!LO:MO:mod=!LO&colon;DY&colon;ed=brack	!	!	!	!	!	!	!	!
!	!	!	!	!null	!	!LO:DY:a:t=piano:mod=%s	!	!LO:DY:t=piano:mod=%s	!	!	!	!
4AA|>/	.	4AA/	.	p	8cc#\L	p	8aa\L	p	.	.	.	.
.	.	.	.	.	8cc#\J	.	8ee\J	.	.	.	.	.
4AA|>/	.	4AA/	.	.	4cc#\	.	4ee\	.	.	.	.	.
4AA|>/	.	4AA/	.	.	4dd\	.	4ff#\	.	.	.	.	.
4AA|>/	.	4AA/	.	.	4dd\	.	4ff#\	.	.	.	.	.
4AA|>/	.	4AA/	.	.	2ee\	.	2ggn\	.	.	.	.	.
4AA|>/	.	4AA/	.	.	.	.	.	.	.	.	.	.
=12	=12	=12	=12	=12	=12	=12	=12	=12	=12	=12	=12	=12
4AA|>/	.	4AA/	.	.	8dd\L	.	8ff#\L	.	.	.	.	.
.	.	.	.	.	8cc#\J	.	8ee\J	.	.	.	.	.
4AA|>/	.	4AA/	.	.	2dd\	.	2ff#\	.	.	.	.	.
4AA|>/	.	4AA/	.	.	.	.	.	.	.	.	.	.
!LO:MO:mod=!null:null	!	!LO:MO:mod=!null:null	!	!	!	!	!	!	!	!	!	!
!LO:N:vis=2	!	!LO:N:vis=2	!	!	!	!LO:DY:t=forte:mod=%s	!	!LO:DY:t=forte:mod=%s	!	!	!	!
2.r	.	2.r	.	.	8dd\	f	8ff#\	f	.	.	.	.
.	.	.	.	.	4cc#\	.	4ee\	.	.	.	.	.
.	.	.	.	.	4b/	.	4dd\	.	.	.	.	.
.	.	.	.	.	8a/	.	8cc#\	.	.	.	.	.
=13	=13	=13	=13	=13	=13	=13	=13	=13	=13	=13	=13	=13
!	!	!	!	!LO:DY:t= :mod=%s	!	!	!	!	!	!	!	!
4E|>\	.	4E\	.	f	8g#/L	.	8ee\L	.	00.r	.	00.r	.
.	.	.	.	.	8g#/J	.	8b\J	.	.	.	.	.
4E|>\	.	4E\	.	.	4g#/	.	4b\	.	.	.	.	.
!	!	!	!	!	!	!	!LO:MO:mod=2cc#	!	!	!	!	!
4E|>\	.	4E\	.	.	2a/	.	[4cc#\	.	.	.	.	.
!	!	!	!	!	!	!	!LO:MO:mod=.	!	!	!	!	!
4E|>\	.	4E\	.	.	.	.	4cc#\]	.	.	.	.	.
4E|>\	.	4E\	.	.	2b/	.	2dd\	.	.	.	.	.
4E|>\	.	4E\	.	.	.	.	.	.	.	.	.	.
=14	=14	=14	=14	=14	=14	=14	=14	=14	=14	=14	=14	=14
4E|>\	.	4E\	.	.	8a/L	.	8cc#\L	.	.	.	.	.
.	.	.	.	.	8g#/J	.	8b\J	.	.	.	.	.
4E|>\	.	4E\	.	.	2a/	.	2cc#\	.	.	.	.	.
4E|>\	.	4E\	.	.	.	.	.	.	.	.	.	.
!	!	!	!	!LO:DY:t= :mod=%s	!	!	!	!	!	!	!	!
!	!	!	!	!LO:MO:mod=!LO&colon;DY&colon;ed=brack	!	!	!	!	!	!	!	!
!	!	!	!	!null	!	!LO:DY:t=piano:mod=%s	!	!LO:DY:t=piano:mod=%s	!	!	!	!
4E|>\	.	4E\	.	p	8g#/L	p	8ee\L	p	.	.	.	.
.	.	.	.	.	8g#/J	.	8b\J	.	.	.	.	.
4E|>\	.	4E\	.	.	4g#/	.	4b\	.	.	.	.	.
4E|>\	.	4E\	.	.	[>4a/	.	[4cc#\	.	.	.	.	.
=15	=15	=15	=15	=15	=15	=15	=15	=15	=15	=15	=15	=15
4E|>\	.	4E\	.	.	4a/]	.	4cc#\]	.	.	.	.	.
4E|>\	.	4E\	.	.	2b/	.	2dd\	.	.	.	.	.
4E|>\	.	4E\	.	.	.	.	.	.	.	.	.	.
!	!	!	!	!LO:DY:t= :mod=%s	!	!	!	!	!	!	!	!
!	!	!	!	!LO:MO:mod=!LO&colon;DY&colon;ed=brack	!	!	!	!	!	!	!	!
!	!	!	!	!null	!	!LO:DY:t=forte:mod=%s	!	!LO:DY:t=forte:mod=%s	!	!	!	!
4E|>\	.	4E\	.	f	8a/L	f	8cc#\L	f	.	.	.	.
.	.	.	.	.	8g#/	.	8b\	.	.	.	.	.
4A|>\	.	4A\	.	.	8a/	.	8cc#\	.	.	.	.	.
.	.	.	.	.	8cc#/	.	8a\	.	.	.	.	.
4r	.	4r	.	.	8a/	.	8cc#\	.	.	.	.	.
.	.	.	.	.	8cc#/J	.	8aa\J	.	.	.	.	.
=16	=16	=16	=16	=16	=16	=16	=16	=16	=16	=16	=16	=16
!LO:MO:mod=!null:null	!	!LO:MO:mod=!null:null	!	!	!	!	!	!	!	!	!	!
!LO:N:vis=2	!	!LO:N:vis=2	!	!	!	!	!	!	!	!	!	!
2.r	.	2.r	.	.	8dd\	.	8ff#\	.	.	.	.	.
.	.	.	.	.	4cc#\	.	4ee\	.	.	.	.	.
.	.	.	.	.	4b/	.	4dd\	.	.	.	.	.
.	.	.	.	.	8a/	.	8cc#\	.	.	.	.	.
4BB/	6	4BB/	.	.	4dd\	.	4gg#\	.	.	.	.	.
4AA/	.	4AA/	.	.	4cc#\	.	4aa\	.	.	.	.	.
4r	.	4r	.	.	4r	.	4r	.	.	.	.	.
=17	=17	=17	=17	=17	=17	=17	=17	=17	=17	=17	=17	=17
4A\	.	4A\	.	.	8a/L	.	8cc#\L	.	1.r	.	0.r	.
.	.	.	.	.	8cc#/	.	8ee\	.	.	.	.	.
4D/	6	4D/	.	.	8b/	.	8dd\	.	.	.	.	.
.	.	.	.	.	8a/	.	8cc#\	.	.	.	.	.
4E\	.	4E\	.	.	8g#/	.	8b\	.	.	.	.	.
*	*	*	*	*	*custos:a	*	*	*	*	*	*	*
.	.	.	.	.	8b/J	.	8dd\J	.	.	.	.	.
!	!	!	!	!	!LO:LB:g=original	!	!	!	!	!	!	!
4AA/	.	4AA/	.	.	8a/L	.	8cc#\L	.	.	.	.	.
.	.	.	.	.	8cc#/	.	8ee\	.	.	.	.	.
4D\	6	4D\	.	.	8b/	.	8dd\	.	.	.	.	.
.	.	.	.	.	8a/	.	8cc#\	.	.	.	.	.
4E\	.	4E\	.	.	8g#/	.	8b\	.	.	.	.	.
.	.	.	.	.	8b/J	.	8dd\J	.	.	.	.	.
=18	=18	=18	=18	=18	=18	=18	=18	=18	=18	=18	=18	=18
!	!	!	!	!LO:DY:t= :mod=%s	!	!	!	!	!	!	!	!
!	!	!	!	!LO:MO:mod=!LO&colon;DY&colon;ed=brack	!	!	!	!	!	!	!	!
!LO:TX:b:i:t=Tenore:mod=	!	!	!	!null	!LO:TX:a:t=1:mod=	!	!	!LO:DY:a:t=Pi:mod=%s	!	!	!	!
4AA/	.	4AA/	.	p	1.r	.	4ee\	p	4e\	Sal-	.	.
4BB/	3	4BB/	.	.	.	.	8dd\L	.	(8d\L	-ve	.	.
.	.	.	.	.	.	.	8cc#\	.	8c#\J)	.	.	.
*	*	*custos:BB	*	*	*	*	*	*	*	*	*	*
!	!	!	!	!	!	!	!	!	!	!LO:MO:mod=pu-	!	!
4C#/	6	4C#/	.	.	.	.	8b\	.	(8B\L	Pu-	.	.
*	*	*	*	*	*	*	*custos:g#	*	*	*	*	*
.	.	.	.	.	.	.	8a\J	.	8A\J)	.	.	.
!	!	!LO:LB:g=original	!	!	!	!	!LO:LB:g=original	!	!	!	!	!
4BB/	6	4BB/	.	.	.	.	4g#/	.	4G#/	-el-	.	.
4AA/	.	4AA/	.	.	.	.	4a/	.	4A/	-le	.	.
4r	.	4r	.	.	.	.	4r	.	4r	.	.	.
=19	=19	=19	=19	=19	=19	=19	=19	=19	=19	=19	=19	=19
!LO:MO:mod=!null:null	!	!LO:MO:mod=!null:null	!	!	!	!	!	!	!	!	!	!
!LO:N:vis=2	!	!LO:N:vis=2	!	!	!	!LO:DY:t=piano:mod=%s	!LO:TX:a:t=1:mod=	!	!LO:TX:a:t=1:mod=	!	!	!
2.r	.	2.r	.	.	4ff#\	p	1.r	.	1.r	.	4f#\	Pu-
.	.	.	.	.	4gg#\	.	.	.	.	.	4g#\	-el-
.	.	.	.	.	8aa\L	.	.	.	.	.	8a\L	-le
.	.	.	.	.	8dd\J	.	.	.	.	.	8d\J	.
!LO:TX:b:i:t=Alto.:mod=	!	!	!	!	!	!	!	!	!	!	!	!
4F#\	6	4F#\	.	.	4.dd\	.	.	.	.	.	4.d\	cen-
4G#\	6 5	4G#\	.	.	.	.	.	.	.	.	.	.
!	!	!	!	!	!	!	!	!	!	!	!LO:SIC:v:s=8c#	!
.	.	.	.	.	8cc#\	.	.	.	.	.	8d\	-ti-
4A\	.	4A\	.	.	4cc#\	.	.	.	.	.	4c#/	-es
=20	=20	=20	=20	=20	=20	=20	=20	=20	=20	=20	=20	=20
4AA/	.	4AA/	.	.	4a/	.	4cc#\	.	8r	.	8r	.
.	.	.	.	.	.	.	.	.	16A\LL	sal-	16c#\LL	sal-
.	.	.	.	.	.	.	.	.	16B\JJ	.	16d\JJ	.
4r	.	4r	.	.	8r	.	8r	.	4c#\	.	4e\	.
.	.	.	.	.	8cc#\L	.	8ee\L	.	.	.	.	.
4r	.	4r	.	.	8b\	.	8dd\	.	4r	.	4r	.
.	.	.	.	.	8a\J	.	8cc#\J	.	.	.	.	.
4BB/	6	4BB/	.	.	4b/	.	4dd\	.	8r	.	8r	.
.	.	.	.	.	.	.	.	.	16G#/LL	.	16B/LL	.
.	.	.	.	.	.	.	.	.	16A/JJ	.	16c#/JJ	.
4r	.	4r	.	.	8r	.	8r	.	4B\	-ve	4d\	-ve
.	.	.	.	.	8b/L	.	8dd\L	.	.	.	.	.
4E\	7	4E\	.	.	8a/	.	8cc#\	.	4r	.	4r	.
.	.	.	.	.	8g#/J	.	8b\J	.	.	.	.	.
!LO:LB:g=original	!	!	!	!	!	!	!	!	!	!	!	!
=21	=21	=21	=21	=21	=21	=21	=21	=21	=21	=21	=21	=21
!	!	!	!	!	!	!	!	!	!	!	!LO:MO:mod=!null:null	!
!	!	!	!	!	!	!	!	!	!	!	!LO:N:vis=2	!
4A\	.	4A\	.	.	4cc#\	.	4ee\	.	4.e\	sal-	2.r	.
4A\	.	4A\	.	.	4cc#\	.	4ee\	.	.	.	.	.
.	.	.	.	.	.	.	.	.	4c#\	.	.	.
4A\	.	4A\	.	.	4cc#\	.	4ee\	.	.	.	.	.
.	.	.	.	.	.	.	.	.	8A/	.	.	.
!	!	!	!	!	!	!	!	!	!LO:MO:mod=*null:null	!	!	!
*	*	*	*	*	*	*	*	*	*2\right	*	*	*
4D/	7	4D/	.	.	4cc#\	.	4ff#\	.	2f#\	-ve	8cc#\	sal-
.	.	.	.	.	.	.	.	.	.	.	4a\	.
4D/	.	4D/	.	.	4cc#\	.	4ff#\	.	.	.	.	.
.	.	.	.	.	.	.	.	.	.	.	4f#\	.
4D/	.	4D/	.	.	4cc#\	.	4ff#\	.	4r	.	.	.
.	.	.	.	.	.	.	.	.	.	.	8d\	.
=22	=22	=22	=22	=22	=22	=22	=22	=22	=22	=22	=22	=22
!	!	!	!	!	!	!	!	!	!	!	!LO:MO:mod=*null:null	!
*	*	*	*	*	*	*	*	*	*	*	*2\right	*
4G#\	7	4G#\	.	.	4b/	.	4ff#\	.	8f#\	sal-	2b\	-ve
.	.	.	.	.	.	.	.	.	4d\	.	.	.
4G#\	.	4G#\	.	.	4b/	.	4ff#\	.	.	.	.	.
.	.	.	.	.	.	.	.	.	4B\	.	.	.
4G#\	.	4G#\	.	.	4b/	.	4ff#\	.	.	.	4r	.
.	.	.	.	.	.	.	.	.	8G#/	.	.	.
4C#/	7	4C#/	.	.	4b/	.	4ee\	.	2e\	-ve	8b\	sal-
.	.	.	.	.	.	.	.	.	.	.	4g#\	.
4C#/	.	4C#/	.	.	4b/	.	4ee\	.	.	.	.	.
.	.	.	.	.	.	.	.	.	.	.	4e\	.
4C#/	.	4C#/	.	.	4b/	.	4ee\	.	4r	.	.	.
.	.	.	.	.	.	.	.	.	.	.	8c#/	.
=23	=23	=23	=23	=23	=23	=23	=23	=23	=23	=23	=23	=23
4F#\	7	4F#\	.	.	4a/	.	4ee\	.	8e\	sal-	2a\	-ve
.	.	.	.	.	.	.	.	.	4c#\	.	.	.
4F#\	.	4F#\	.	.	4a/	.	4ee\	.	.	.	.	.
.	.	.	.	.	.	.	.	.	4A/	.	.	.
4F#\	.	4F#\	.	.	4a/	.	4ee\	.	.	.	4r	.
.	.	.	.	.	.	.	.	.	8F#/	.	.	.
4BB/	7	4BB/	.	.	4a/	.	4dd\	.	2d\	-ve	8a\	sal-
.	.	.	.	.	.	.	.	.	.	.	4f#\	.
4BB/	.	4BB/	.	.	4a/	.	4dd\	.	.	.	.	.
.	.	.	.	.	.	.	.	.	.	.	4d\	.
4BB/	.	4BB/	.	.	4a/	.	4dd\	.	4r	.	.	.
.	.	.	.	.	.	.	.	.	.	.	8B/	.
=24	=24	=24	=24	=24	=24	=24	=24	=24	=24	=24	=24	=24
4E\	.	4E\	.	.	4g#/	.	4dd\	.	8d\	sal-	2g#\	-ve
.	.	.	.	.	.	.	.	.	4B\	.	.	.
4E\	.	4E\	.	.	4g#/	.	4dd\	.	.	.	.	.
.	.	.	.	.	.	.	.	.	4G#/	.	.	.
4E\	.	4E\	.	.	4g#/	.	4dd\	.	.	.	4r	.
*	*	*	*	*	*	*	*	*	*custos:c#	*	*	*
.	.	.	.	.	.	.	.	.	8E/	-ve	.	.
!	!	!	!	!	!	!	!	!	!LO:PB:g=original	!	!	!
4AA|/	.	4AA/	.	.	8a\L	.	8cc#\L	.	4c#\	sal-	8a\L	sal-
.	.	.	.	.	8cc#\J	.	8ee\J	.	.	.	8e\J	.
4AA|/	.	4AA/	.	.	4cc#\	.	4ee\	.	4c#\	-ve	4e\	-ve
*	*	*	*	*	*	*	*	*	*	*	*custos:f#	*
!	!	!	!	!	!	!	!	!	!	!LO:MO:mod=pu-	!	!LO:MO:mod=pu-
4AA|/	.	4AA/	.	.	4dd\	.	4ff#\	.	4d\	Pu-	4f#\	Pu-
!	!	!	!	!	!	!	!	!	!	!	!LO:PB:g=original	!
=25	=25	=25	=25	=25	=25	=25	=25	=25	=25	=25	=25	=25
4AA|/	.	4AA/	.	.	4dd\	.	4ff#\	.	4d\	-el-	4f#\	-el-
4AA|/	.	4AA/	.	.	2ee\	.	2ggn\	.	2e\	-le	2gn\	-le
4AA|/	.	4AA/	.	.	.	.	.	.	.	.	.	.
4AA|/	.	4AA/	.	.	8dd\L	.	8ff#\L	.	8d\	cen-	8f#\	cen-
.	.	.	.	.	8cc#\J	.	8ee\J	.	8c#\	-ti-	8e\	-ti-
4AA|/	.	4AA/	.	.	2dd\	.	2ff#\	.	2d\	-es	2f#\	-es
4AA|/	.	4AA/	.	.	.	.	.	.	.	.	.	.
=26	=26	=26	=26	=26	=26	=26	=26	=26	=26	=26	=26	=26
!	!	!	!	!	!	!	!	!	!	!LO:MO:mod=pu-	!	!LO:MO:mod=pu-
4AA|/	.	4AA/	.	.	8cc#\L	.	8aa\L	.	4c#\	Pu-	8a\L	Pu-
.	.	.	.	.	8cc#\J	.	8ee\J	.	.	.	8e\J	.
4AA|/	.	4AA/	.	.	4cc#\	.	4ee\	.	4c#\	-el-	4e\	-el-
4AA|/	.	4AA/	.	.	4dd\	.	4ff#\	.	4d\	-le	4f#\	-le
4AA|/	.	4AA/	.	.	4dd\	.	4ff#\	.	4d\	Sal-	4f#\	sal-
4AA|/	.	4AA/	.	.	2ee\	.	2ggn\	.	2e\	-ve	2gn\	-ve
4AA|/	.	4AA/	.	.	.	.	.	.	.	.	.	.
=27	=27	=27	=27	=27	=27	=27	=27	=27	=27	=27	=27	=27
4AA/	6_ 4_	4AA/	.	.	8dd\L	.	8ff#\L	.	8d\	mil-	8f#\	mil-
.	.	.	.	.	8cc#\J	.	8ee\J	.	8c#\	-li-	8e\	-li-
*	*	*	*	*	*custos:dd	*	*	*	*	*	*	*
!	!	!	!	!	!	!	!LO:TX:t=P:problem=zbędna kreska taktowa:mod=	!	!	!	!	!
4AA/	.	4AA/	.	.	2dd\	.	2ff#\	.	2d\	-es	2f#\	-es
4D\	x 3	4D\	.	.	.	.	.	.	.	.	.	.
*	*	*custos:E	*	*	*	*	*	*	*	*	*	*
!LO:MO:mod=!null:null	!	!LO:MO:mod=!null:null	!	!	!	!	!	!	!LO:MO:mod=!null:null	!	!LO:MO:mod=!null:null	!
!LO:N:vis=2	!	!LO:N:vis=2	!	!	!LO:LB:g=original	!LO:DY:t=forte:mod=%s	!	!LO:DY:t=forte:mod=%s	!LO:N:vis=2	!	!LO:N:vis=2	!
2.r	.	2.r	.	.	8dd\	f	8ff#\	f	2.r	.	2.r	.
.	.	.	.	.	4cc#\	.	4ee\	.	.	.	.	.
.	.	.	.	.	4b/	.	4dd\	.	.	.	.	.
.	.	.	.	.	8a/	.	8cc#\	.	.	.	.	.
!	!	!LO:LB:g=original	!	!	!	!	!	!	!	!	!	!
=28	=28	=28	=28	=28	=28	=28	=28	=28	=28	=28	=28	=28
!	!	!	!	!LO:DY:t= :mod=%s	!	!	!	!	!	!	!	!
!	!	!	!	!LO:MO:mod=!LO&colon;DY&colon;ed=brack	!	!	!	!	!	!	!	!
!LO:TX:b:i:t=V. Viol&colon;:mod=	!	!	!	!null	!	!	!	!	!LO:TX:a:t=3.:mod=	!	!	!
4E|	.	4E\	.	f	8g#/	.	8b\	.	0.r	.	0.r	.
.	.	.	.	.	4cc#\	.	4ee\	.	.	.	.	.
4E|\	.	4E\	.	.	.	.	.	.	.	.	.	.
.	.	.	.	.	4b/	.	4dd\	.	.	.	.	.
4E|\	.	4E\	.	.	.	.	.	.	.	.	.	.
.	.	.	.	.	8a/	.	8cc#\	.	.	.	.	.
4E|\	.	4E\	.	.	8g#/	.	8b\	.	.	.	.	.
.	.	.	.	.	4cc#\	.	4ee\	.	.	.	.	.
4E|\	.	4E\	.	.	.	.	.	.	.	.	.	.
.	.	.	.	.	4b\	.	4dd\	.	.	.	.	.
4E|\	.	4E\	.	.	.	.	.	.	.	.	.	.
*	*	*	*	*	*	*	*custos:b	*	*	*	*	*
.	.	.	.	.	8a/	.	8cc#\	.	.	.	.	.
!	!	!	!	!	!	!	!LO:LB:g=original	!	!	!	!	!
=29	=29	=29	=29	=29	=29	=29	=29	=29	=29	=29	=29	=29
4E|\	.	4E\	.	.	8g#/	.	8b\	.	.	.	.	.
.	.	.	.	.	4cc#\	.	4ee\	.	.	.	.	.
4E|\	.	4E\	.	.	.	.	.	.	.	.	.	.
.	.	.	.	.	4b/	.	4dd\	.	.	.	.	.
4E|\	.	4E\	.	.	.	.	.	.	.	.	.	.
.	.	.	.	.	8a/	.	8cc#\	.	.	.	.	.
4E|\	.	4E\	.	.	8a/L	.	8cc#\L	.	.	.	.	.
.	.	.	.	.	8g#/J	.	8b\J	.	.	.	.	.
4A|\	.	4A\	.	.	4a/	.	4cc#\	.	.	.	.	.
4r	.	4r	.	.	4r	.	4r	.	.	.	.	.
=30	=30	=30	=30	=30	=30	=30	=30	=30	=30	=30	=30	=30
4A\	3	4A\	.	.	8a\L	.	8cc#\L	.	1.r	.	1.r	.
.	.	.	.	.	8b\	.	8dd\	.	.	.	.	.
4r	.	4r	.	.	8cc#\	.	8ee\	.	.	.	.	.
.	.	.	.	.	8b\	.	8dd\	.	.	.	.	.
4r	.	4r	.	.	8cc#\	.	8ee\	.	.	.	.	.
.	.	.	.	.	8dd\J	.	8ff#\J	.	.	.	.	.
4A\	7	4A\	.	.	4ee\	.	4ggn\	.	.	.	.	.
4r	.	4r	.	.	8dd\L	.	8ff#\L	.	.	.	.	.
.	.	.	.	.	8cc#\J	.	8ee\J	.	.	.	.	.
4r	.	4r	.	.	4dd\	.	4ff#\	.	.	.	.	.
=31	=31	=31	=31	=31	=31	=31	=31	=31	=31	=31	=31	=31
!	!	!	!	!LO:DY:t= :mod=%s	!	!	!	!	!	!	!	!
!LO:TX:b:i:t=Alto Tenore.:mod=	!	!	!	!LO:MO:mod=!LO&colon;DY&colon;ed=brack	!	!	!	!	!	!	!	!
!	!	!	!	!null	!	!LO:DY:t=piano:mod=%s	!	!LO:DY:t=piano:mod=%s	!	!	!	!
4A|\	.	4A\	.	p	8cc#\L	p	8ee\L	p	8c#\L	Sal-	8e\L	Sal-
.	.	.	.	.	8ff#\	.	8aa\	.	8f#\J	.	8a\J	.
4A|\	.	4A\	.	.	8ee\	.	8ggn\	.	8e\	-ve	8gn\	-ve
!	!	!	!	!	!	!	!	!	!	!	!	!LO:MO:mod=pu-
.	.	.	.	.	8dd\	.	8ff#\	.	8d\	pu-	8f#\	Pu-
!	!	!	!	!	!	!	!LO:SIC:v:s=8gg	!	!	!	!LO:SIC:v:s=8g	!
4A|\	.	4A\	.	.	8ee\	.	8ggn\	.	8e\	-el-	8gn\	-el-
.	.	.	.	.	8dd\J	.	8ff#\J	.	8d\	-le	8f#\	-le
!	!	!	!	!	!	!	!LO:SIC:v:s=8ggL	!	!	!	!LO:SIC:v:s=8g	!
4A\	7	4A\	.	.	8ee\L	.	8ggn\L	.	8e\	cen-	8gn\	cen-
.	.	.	.	.	8cc#\J	.	8ee\J	.	8c#\	-ti-	8e\	-ti-
4D/	3	4D/	.	.	4dd\	.	4ff#\	.	4d\	-es	4f#\	-es
4r	.	4r	.	.	4r	.	4r	.	4r	.	4r	.
!LO:LB:g=original	!	!	!	!	!	!	!	!	!	!	!	!
=32	=32	=32	=32	=32	=32	=32	=32	=32	=32	=32	=32	=32
!	!	!	!	!	!	!	!	!	!	!	!	!LO:MO:mod=pu-
4A|\	.	4A\	.	.	8cc#\L	.	8ee\L	.	8c#\L	pu-	8e\L	Pu-
.	.	.	.	.	8ff#\	.	8aa\	.	8f#\J	.	8a\J	.
4A|\	.	4A\	.	.	8ee\	.	8ggn\	.	8e\	-el-	8gn\	-el-
.	.	.	.	.	8dd\	.	8ff#\	.	8d\	-le	8f#\	-le
!	!	!	!	!	!	!	!LO:SIC:v:s=8gg	!	!	!	!LO:SIC:v:s=8g	!
4A|\	.	4A\	.	.	8ee\	.	8ggn\	.	8e\	sal-	8gn\	sal-
.	.	.	.	.	8dd\J	.	8ff#\J	.	8d\	-ve	8f#\	-ve
!	!	!	!	!	!	!	!LO:SIC:v:s=8ggL	!	!	!	!LO:SIC:v:s=8g	!
4A\	7	4A\	.	.	8ee\L	.	8ggn\L	.	8e\	mil-	8gn\	mil-
*	*	*	*	*	*	*	*	*	*	*	*custos:f#	*
.	.	.	.	.	8cc#\J	.	8ee\J	.	8c#\	-li-	8e\	-li-
!	!	!	!	!	!	!	!	!	!	!	!LO:LB:g=original	!
4D/	3	4D/	.	.	4dd\	.	4ff#\	.	4d\	-es	4f#\	-es
4r	.	4r	.	.	4r	.	4r	.	4r	.	4r	.
!	!	!	!	!	!	!	!	!	!LO:LB:g=original	!	!	!
=33	=33	=33	=33	=33	=33	=33	=33	=33	=33	=33	=33	=33
4A|\	.	4A\	.	.	8cc#\	.	8ee\	.	8c#\	Sal-	8e\	Sal-
.	.	.	.	.	4ff#\	.	4aa\	.	4f#\	.	4a\	.
4A|\	.	4A\	.	.	.	.	.	.	.	.	.	.
.	.	.	.	.	4ee\	.	4ggn\	.	4e\	.	4gn\	.
4A|\	.	4A\	.	.	.	.	.	.	.	.	.	.
.	.	.	.	.	8dd\	.	8ff#\	.	8d\	.	8f#\	.
4A|\	.	4A\	.	.	8cc#\	.	8ee\	.	8c#\	.	8e\	.
.	.	.	.	.	4ff#\	.	4aa\	.	4f#\	.	4a\	.
4A|\	.	4A\	.	.	.	.	.	.	.	.	.	.
!	!	!	!	!	!	!	!LO:SIC:v:s=4gg	!	!	!	!LO:SIC:v:s=4g	!
.	.	.	.	.	4ee\	.	4ggn\	.	4e\	.	4gn\	.
4A|\	.	4A\	.	.	.	.	.	.	.	.	.	.
.	.	.	.	.	8dd\	.	8ff#\	.	8d\	.	8f#\	.
=34	=34	=34	=34	=34	=34	=34	=34	=34	=34	=34	=34	=34
4A|\	.	4A\	.	.	8cc#\	.	8ee\	.	8c#\	.	8e\	.
.	.	.	.	.	4ff#\	.	4aa\	.	4f#\	.	4a\	.
4A|\	.	4A\	.	.	.	.	.	.	.	.	.	.
.	.	.	.	.	4ee\	.	4ggn\	.	4e\	.	4gn\	.
4A|\	.	4A\	.	.	.	.	.	.	.	.	.	.
*	*	*	*	*	*custos:ee	*	*	*	*	*	*	*
.	.	.	.	.	8dd\	.	8ff#\	.	8d\	.	8f#\	.
!	!	!	!	!	!LO:LB:g=original	!	!LO:SIC:v:s=8ggL	!	!LO:SIC:v:s=8eL	!	!LO:SIC:v:s=8gL	!
4A\	7	4A\	.	.	8ee\L	.	8ggn\L	.	8d\L	.	8gn\L	.
.	.	.	.	.	8cc#\J	.	8ee\J	.	8c#\J	.	8e\J	.
4D/	3	4D/	.	.	4dd\	.	4ff#\	.	4d\	-ve	4f#\	-ve
4r	.	4r	.	.	4r	.	4r	.	4r	.	4r	.
=35	=35	=35	=35	=35	=35	=35	=35	=35	=35	=35	=35	=35
!LO:MO:mod=*null:null	!	!LO:MO:mod=*null:null	!	!	!	!	!	!	!	!	!	!
*2\right	*	*2\right	*	*	*	*	*	*	*	*	*	*
!	!	!	!	!	!	!	!	!	!	!	!LO:MO:mod=!null:null	!
!	!	!	!	!	!	!	!	!	!	!	!LO:N:vis=2	!
2.D\	.	2.D\	.	.	00.r	.	00.r	.	4r	.	2.r	.
.	.	.	.	.	.	.	.	.	4A/	Sal-	.	.
!	!	!	!	!	!	!	!	!	!LO:MO:mod=2d	!	!	!
.	.	.	.	.	.	.	.	.	[4d\	.	.	.
!	!	!	!	!	!	!	!	!	!LO:MO:mod=.	!	!	!
2.A\	4_	2.A\	.	.	.	.	.	.	4d\]	.	4r	.
.	.	.	.	.	.	.	.	.	8c#\L	.	4e\	Sal-
.	.	.	.	.	.	.	.	.	8B\J	.	.	.
.	3	.	.	.	.	.	.	.	4c#\	-ve	[4a\	.
=36	=36	=36	=36	=36	=36	=36	=36	=36	=36	=36	=36	=36
2.E\	4_	2.E\	.	.	.	.	.	.	2B\	sal-	4a\]	.
.	.	.	.	.	.	.	.	.	.	.	8gn\L	.
.	.	.	.	.	.	.	.	.	.	.	8f#\J	.
!	!	!	!	!	!	!	!	!	!	!	!LO:SIC:v:s=4g	!
.	3	.	.	.	.	.	.	.	2e\	.	4gn\	.
2B\	4_	2B\	.	.	.	.	.	.	.	.	2f#\	.
.	.	.	.	.	.	.	.	.	8d\L	.	.	.
.	.	.	.	.	.	.	.	.	8c#\J	.	.	.
8B\L	3	8B\L	.	.	.	.	.	.	4d\	.	[<4b\	.
8A\J	.	8A\J	.	.	.	.	.	.	.	.	.	.
=37	=37	=37	=37	=37	=37	=37	=37	=37	=37	=37	=37	=37
*	*	*custos:F#	*	*	*	*	*	*	*	*	*	*
2.Gn\	7_	2.Gn\	.	.	.	.	.	.	2f#\	.	4b\]	.
.	.	.	.	.	.	.	.	.	.	.	8a\L	.
.	.	.	.	.	.	.	.	.	.	.	8gn\J	.
.	6	.	.	.	.	.	.	.	2e\	.	4b\	.
!	!	!LO:LB:g=original	!	!	!	!	!	!	!	!	!	!
2.F#\	7_	2.F#\	.	.	.	.	.	.	.	.	2.a\	.
.	.	.	.	.	.	.	.	.	8d\L	.	.	.
.	.	.	.	.	.	.	.	.	8c#\J	.	.	.
.	6	.	.	.	.	.	.	.	[4d\	.	.	.
=38	=38	=38	=38	=38	=38	=38	=38	=38	=38	=38	=38	=38
2.E\	7_ -_	2.E\	.	.	.	.	.	.	4d\]	.	2.gn\	.
.	.	.	.	.	.	.	.	.	8c#\L	.	.	.
.	.	.	.	.	.	.	.	.	8B\J	.	.	.
.	6	.	.	.	.	.	.	.	4c#\	.	.	.
4D\	.	4D/	.	.	.	.	.	.	4d\	-ve	4f#\	-ve
4r	.	4r	.	.	.	.	.	.	4d\	Do-	4r	.
4r	.	4r	.	.	.	.	.	.	4d\	-rmi	4r	.
=39	=39	=39	=39	=39	=39	=39	=39	=39	=39	=39	=39	=39
!LO:TX:a:t=6.:mod=	!	!LO:TX:a:t=6:mod=	!	!	!	!	!	!	!	!	!	!
00.r	.	00.r	.	.	8dd\	.	8ff#\	.	[2.d\	Dor-	4f#\	Sal-
.	.	.	.	.	4ff#\	.	4aa\	.	.	.	.	.
.	.	.	.	.	.	.	.	.	.	.	4a\	-ve
.	.	.	.	.	4ee\	.	4ggn\	.	.	.	.	.
*	*	*	*	*	*	*	*	*	*	*	*custos:f#	*
!	!	!	!	!	!	!	!	!	!	!	!	!LO:MO:mod=pu-
.	.	.	.	.	.	.	.	.	.	.	4a\	Pu-
.	.	.	.	.	8dd\	.	8ff#\	.	.	.	.	.
!	!	!	!	!	!	!	!	!	!	!	!LO:LB:g=original	!
.	.	.	.	.	8ff#\L	.	8aa\L	.	2.d\_	.	4f#\	-el-
.	.	.	.	.	8dd\J	.	8ff#\J	.	.	.	.	.
!	!	!	!	!	!LO:SIC:v:s=4gg\	!	!	!	!	!	!	!
.	.	.	.	.	4gg#\	.	4bb\	.	.	.	2gn\	-le
!	!	!	!	!	!	!	!LO:SIC:v:s=4gg	!	!	!	!	!
.	.	.	.	.	4bb\	.	4ggn\	.	.	.	.	.
!	!	!	!	!	!	!	!LO:LB:g=original	!	!	!	!	!
=40	=40	=40	=40	=40	=40	=40	=40	=40	=40	=40	=40	=40
.	.	.	.	.	8dd\L	.	8ff#\L	.	2.d\_	.	8f#\	cen-
.	.	.	.	.	8ee\J	.	8ggn\J	.	.	.	8e\	-ti-
.	.	.	.	.	4ff#\	.	4aa\	.	.	.	2f#\	-es
.	.	.	.	.	4dd\	.	[4ff#\	.	.	.	.	.
.	.	.	.	.	8dd\	.	8ff#\]	.	2.d\_	.	4f#\	pu-
.	.	.	.	.	4ff#\	.	4aa\	.	.	.	.	.
.	.	.	.	.	.	.	.	.	.	.	4a\	-el-
!	!	!	!	!	!	!	!LO:SIC:v:s=4gg	!	!	!	!	!
.	.	.	.	.	4ee\	.	4ggn\	.	.	.	.	.
.	.	.	.	.	.	.	.	.	.	.	4a\	-le
.	.	.	.	.	8dd\	.	8ff#\	.	.	.	.	.
=41	=41	=41	=41	=41	=41	=41	=41	=41	=41	=41	=41	=41
.	.	.	.	.	8ff#\L	.	8aa\L	.	2.d\_	.	4f#\	sal-
.	.	.	.	.	8dd\J	.	8ff#\J	.	.	.	.	.
!	!	!	!	!	!LO:SIC:v:s=4gg\	!	!	!	!	!	!	!
.	.	.	.	.	4gg#\	.	4bb\	.	.	.	2gn\	-ve
.	.	.	.	.	4bb\	.	4ggn\	.	.	.	.	.
!	!	!	!	!	!	!	!	!	!LO:LB:g=original	!	!	!
.	.	.	.	.	8dd\L	.	8ff#\L	.	2.d\]	.	8f#\	mil-
!	!	!	!	!	!	!	!LO:SIC:v:s=8ggJ	!	!	!	!	!
.	.	.	.	.	8ee\J	.	8ggn\J	.	.	.	8e\	-li-
.	.	.	.	.	4ff#\	.	4aa\	.	.	.	2f#\	-es
.	.	.	.	.	4dd\	.	4ff#\	.	.	.	.	.
=42	=42	=42	=42	=42	=42	=42	=42	=42	=42	=42	=42	=42
.	.	.	.	.	4a/	.	4a/	.	2c#\	-mi	4r	.
.	.	.	.	.	4A/	.	4A/	.	.	.	4a\	Dor-
.	.	.	.	.	4r	.	4r	.	4r	.	4a\	-mi
!	!	!	!	!	!	!	!	!	!	!	!	!LO:MO:mod=dor-
.	.	.	.	.	8ee\L	.	8cc#\L	.	4c#\	Dor-	[<2.a\	Dor-
.	.	.	.	.	8dd\J	.	8dd\J	.	.	.	.	.
.	.	.	.	.	4cc#\	.	4ee\	.	4e\	-mi	.	.
.	.	.	.	.	4ee\	.	4cc#\	.	4e\	de-	.	.
=43	=43	=43	=43	=43	=43	=43	=43	=43	=43	=43	=43	=43
0.r	.	0.r	.	.	4cc#\	.	4ee\	.	4c#\	-co-	2.a\_	.
.	.	.	.	.	8dd\L	.	8ff#\L	.	2d\	-re	.	.
.	.	.	.	.	8cc#\J	.	8ee\J	.	.	.	.	.
.	.	.	.	.	4dd\	.	4ff#\	.	.	.	.	.
.	.	.	.	.	8cc#\L	.	8ee\L	.	8c#\	re-	2.a\_<	.
.	.	.	.	.	8b\J	.	8dd\J	.	8B\	-gu-	.	.
.	.	.	.	.	4a/	.	4cc#\	.	2A/	-le	.	.
.	.	.	.	.	4cc#\	.	4ee\	.	.	.	.	.
=44	=44	=44	=44	=44	=44	=44	=44	=44	=44	=44	=44	=44
.	.	.	.	.	8ee\L	.	8cc#\L	.	4c#\	for-	2.a\_	.
.	.	.	.	.	8dd\J	.	8dd\J	.	.	.	.	.
.	.	.	.	.	4cc#\	.	4ee\	.	4e\	-mo-	.	.
.	.	.	.	.	4ee\	.	4cc#\	.	4e\	-se	.	.
.	.	.	.	.	4cc#\	.	4ee\	.	4c#\	dor-	2.a\]	.
.	.	.	.	.	8dd\L	.	8ff#\L	.	2d\	-mi	.	.
.	.	.	.	.	8cc#\J	.	8ee\J	.	.	.	.	.
.	.	.	.	.	4dd\	.	4ff#\	.	.	.	.	.
=45	=45	=45	=45	=45	=45	=45	=45	=45	=45	=45	=45	=45
!LO:MO:mod=!null:null	!	!LO:MO:mod=!null:null	!	!	!	!	!	!	!	!	!	!
!LO:N:vis=2	!	!LO:N:vis=2	!	!	!	!	!	!	!	!	!	!
2.r	.	2.r	.	.	8cc#\L	.	8ee\L	.	8c#\	flo-	2.a\	-mi
.	.	.	.	.	8b\J	.	8dd\J	.	8B\	-scu-	.	.
.	.	.	.	.	4a/	.	4cc#\	.	2A/	-le	.	.
.	.	.	.	.	4cc#\	.	4ee\	.	.	.	.	.
!	!	!	!	!	!LO:MO:mod=!null:null	!	!LO:MO:mod=!null:null	!	!	!	!	!
!	!	!	!	!	!LO:N:vis=2	!	!LO:N:vis=2	!	!	!	!	!
4AA|>/	.	4AA/	.	.	2.r	.	2.r	.	8A\L	Dor-	8c#\L	Dor-
.	.	.	.	.	.	.	.	.	8B\J	.	8d\J	.
4AA|>/	.	4AA/	.	.	.	.	.	.	8c#\	-mi	8e\	-mi
.	.	.	.	.	.	.	.	.	8B\	de-	8d\	de-
4AA|>/	.	4AA/	.	.	.	.	.	.	8c#\	-co-	8e\	-co-
.	.	.	.	.	.	.	.	.	8d\	-re	8f#\	-re
=46	=46	=46	=46	=46	=46	=46	=46	=46	=46	=46	=46	=46
!	!	!	!	!	!LO:TX:a:t=1:mod=	!	!LO:TX:a:t=1:mod=	!	!	!LO:MO:mod=re-	!	!LO:MO:mod=re-
4AA|>/	.	4AA/	.	.	1.r	.	1.r	.	4e\	Re-	4gn\	Re-
4r	.	4r	.	.	.	.	.	.	8d\	.	8f#\	.
*	*	*	*	*	*	*	*	*	*	*	*custos:f#	*
.	.	.	.	.	.	.	.	.	8c#\	-gu-	8e\	-gu-
!	!	!	!	!	!	!	!	!	!	!	!LO:LB:g=original	!
4r	.	4r	.	.	.	.	.	.	4d\	-le	4f#\	-le
4AA/	.	4AA/	.	.	.	.	.	.	8A\L	for-	8c#\L	for-
.	.	.	.	.	.	.	.	.	8B\J	.	8d\J	.
4AA/	.	4AA/	.	.	.	.	.	.	8c#\	-mo-	8e\	-mo-
.	.	.	.	.	.	.	.	.	8B\	-se	8d\	-se
!	!	!	!	!	!	!	!	!	!LO:LB:g=original	!	!	!
4AA/	.	4AA/	.	.	.	.	.	.	8c#\	dor-	8e\	dor-
.	.	.	.	.	.	.	.	.	8d\	-mi	8f#\	-mi
=47	=47	=47	=47	=47	=47	=47	=47	=47	=47	=47	=47	=47
!	!	!	!	!	!LO:MO:mod=!null:null	!	!LO:MO:mod=!null:null	!	!	!	!	!
!	!	!	!	!	!LO:N:vis=2	!	!LO:N:vis=2	!	!	!	!LO:SIC:v:s=4g	!
4AA/	.	4AA/	.	.	2.r	.	2.r	.	4e\	flo-	4g#\	flo-
4r	.	4r	.	.	.	.	.	.	8d\	.	8f#\	.
.	.	.	.	.	.	.	.	.	8c#\	-scu-	8e\	-scu-
4r	.	4r	.	.	.	.	.	.	4d\	-le	4f#\	-le
!	!	!	!	!	!	!	!	!	!	!	!LO:MO:mod=!null:null	!
!	!	!	!	!	!	!	!	!	!	!	!LO:N:vis=2	!
4A\	.	4A\	.	.	4cc#\	.	4ee\	.	4.e\	Dor-	2.r	.
4A\	.	4A\	.	.	4cc#\	.	4ee\	.	.	.	.	.
.	.	.	.	.	.	.	.	.	4c#\	.	.	.
4A\	.	4A\	.	.	4cc#\	.	4ee\	.	.	.	.	.
.	.	.	.	.	.	.	.	.	8A/	.	.	.
!	!	!	!	!	!LO:LB:g=original	!	!	!	!	!	!	!
=48	=48	=48	=48	=48	=48	=48	=48	=48	=48	=48	=48	=48
4d\	7	4d\	.	.	4cc#\	.	4ff#\	.	2f#\	-mi	8cc#\	Dor-
.	.	.	.	.	.	.	.	.	.	.	4a\	.
4d\	.	4d\	.	.	4cc#\	.	4ff#\	.	.	.	.	.
.	.	.	.	.	.	.	.	.	.	.	4f#\	.
4d\	.	4d\	.	.	4cc#\	.	4ff#\	.	4r	.	.	.
.	.	.	.	.	.	.	.	.	.	.	8d\	.
4G#\	7	4G#\	.	.	4b/	.	4ff#\	.	8f#\	Dor-	2b\	-mi
.	.	.	.	.	.	.	.	.	4d\	.	.	.
4G#\	.	4G#\	.	.	4b/	.	4ff#\	.	.	.	.	.
.	.	.	.	.	.	.	.	.	4B\	.	.	.
4G#\	.	4G#\	.	.	4b/	.	4ff#\	.	.	.	4r	.
.	.	.	.	.	.	.	.	.	8G#/	.	.	.
!LO:LB:g=original	!	!	!	!	!	!	!	!	!	!	!	!
=49	=49	=49	=49	=49	=49	=49	=49	=49	=49	=49	=49	=49
4c#\	7	4c#\	.	.	4b/	.	4ee\	.	2e\	-mi	8b\	Dor-
.	.	.	.	.	.	.	.	.	.	.	4g#\	.
4c#\	.	4c#\	.	.	4b/	.	4ee\	.	.	.	.	.
.	.	.	.	.	.	.	.	.	.	.	4e\	.
4c#\	.	4c#\	.	.	4b/	.	4ee\	.	4r	.	.	.
.	.	.	.	.	.	.	.	.	.	.	8c#/	.
4F#\	7	4F#\	.	.	4a/	.	4ee\	.	8e\	Dor-	2a\	-mi
.	.	.	.	.	.	.	.	.	4c#\	.	.	.
4F#\	.	4F#\	.	.	4a/	.	4ee\	.	.	.	.	.
.	.	.	.	.	.	.	.	.	4A/	.	.	.
4F#\	.	4F#\	.	.	4a/	.	4ee\	.	.	.	4r	.
.	.	.	.	.	.	.	.	.	8F#/	.	.	.
=50	=50	=50	=50	=50	=50	=50	=50	=50	=50	=50	=50	=50
4B\	7	4B\	.	.	4a/	.	4dd\	.	2d\	-mi	8a\	Dor-
.	.	.	.	.	.	.	.	.	.	.	4f#\	.
4B\	.	4B\	.	.	4a/	.	4dd\	.	.	.	.	.
.	.	.	.	.	.	.	.	.	.	.	4d\	.
*	*	*	*	*	*	*	*custos:dd	*	*	*	*	*
4B\	.	4B\	.	.	4a/	.	4dd\	.	4r	.	.	.
.	.	.	.	.	.	.	.	.	.	.	8B/	.
!	!	!	!	!	!	!	!LO:LB:g=original	!	!	!	!	!
4E\	7	4E\	.	.	4g#/	.	4dd\	.	8d\	Dor-	2g#\	-mi
.	.	.	.	.	.	.	.	.	4B\	.	.	.
4E\	.	4E\	.	.	4g#/	.	4dd\	.	.	.	.	.
.	.	.	.	.	.	.	.	.	4G#/	.	.	.
4E\	.	4E\	.	.	4g#/	.	4dd\	.	.	.	4r	.
.	.	.	.	.	.	.	.	.	8E/	.	.	.
=51	=51	=51	=51	=51	=51	=51	=51	=51	=51	=51	=51	=51
!	!	!	!	!	!LO:TX:a:t=2:mod=	!	!LO:TX:a:t=2:mod=	!	!	!	!	!LO:MO:mod=Dor-
4A\	3	4A\	.	.	0.r	.	0.r	.	8c#\	-mi	8e\L	dor-
.	.	.	.	.	.	.	.	.	8f#\	Dor-	8a\J	.
4AA|>/	.	4AA/	.	.	.	.	.	.	8f#\	-mi	8a\	-mi
.	.	.	.	.	.	.	.	.	8e\	de-	8gn\	de-
4AA|>/	.	4AA/	.	.	.	.	.	.	8e\	-co-	8g\	-co-
.	.	.	.	.	.	.	.	.	8d\	-re	8f#\	-re
*	*	*	*	*	*	*	*	*	*	*	*custos:f#	*
!	!	!	!	!	!	!	!	!	!	!	!LO:SIC:v:s=4g	!
4AA|>/	.	4AA/	.	.	.	.	.	.	4e\	Re-	4gn\	Re-
!	!	!	!	!	!	!	!	!	!	!	!LO:LB:g=original	!
4r	.	4r	.	.	.	.	.	.	8d\	.	8f#\	.
.	.	.	.	.	.	.	.	.	8c#\	-gu-	8e\	-gu-
4r	.	4r	.	.	.	.	.	.	4d\	-le	4f#\	-le
=52	=52	=52	=52	=52	=52	=52	=52	=52	=52	=52	=52	=52
4AA|>/	.	4AA/	.	.	.	.	.	.	8c#\L	for-	8e\L	for-
*	*	*	*	*	*	*	*	*	*custos:f#	*	*	*
.	.	.	.	.	.	.	.	.	8f#\J	.	8a\J	.
!	!	!	!	!	!	!	!	!	!LO:LB:g=original	!	!	!
4AA|>/	.	4AA/	.	.	.	.	.	.	8f#\	-mo-	8a\	-mo-
.	.	.	.	.	.	.	.	.	8e\	-se	8gn\	-se
*	*	*custos:AA	*	*	*	*	*	*	*	*	*	*
4AA|>/	.	4AA/	.	.	.	.	.	.	8e\	dor-	8g\	dor-
.	.	.	.	.	.	.	.	.	8d\	-mi	8f#\	-mi
!	!	!LO:LB:g=original	!	!	!	!	!	!	!	!	!LO:SIC:v:s=4g	!
4AA|>/	.	4AA/	.	.	.	.	.	.	4e\	flo-	4gn\	flo-
4r	.	4r	.	.	.	.	.	.	8d\	.	8f#\	.
.	.	.	.	.	.	.	.	.	8c#\	-scu-	8e\	-scu-
4r	.	4r	.	.	.	.	.	.	4d\	-le	4f#\	-le
=53	=53	=53	=53	=53	=53	=53	=53	=53	=53	=53	=53	=53
!	!	!	!	!LO:DY:t= :mod=%s	!	!	!	!	!	!	!	!
!	!	!	!	!LO:MO:mod=!LO&colon;DY&colon;ed=brack	!	!	!	!	!	!	!	!
!	!	!	!	!null	!	!LO:DY:t=forte:mod=%s	!	!LO:DY:t=forte:mod=%s	!	!	!	!
4D\	3	4D\	.	f	8dd\	f	8ff#\	f	00.r	.	00.r	.
.	.	.	.	.	4cc#\	.	4ee\	.	.	.	.	.
4r	.	4r	.	.	.	.	.	.	.	.	.	.
.	.	.	.	.	4b/	.	4dd\	.	.	.	.	.
4r	.	4r	.	.	.	.	.	.	.	.	.	.
.	.	.	.	.	8a/	.	8cc#\	.	.	.	.	.
4E\	7	4E\	.	.	4g#/	.	4b\	.	.	.	.	.
4AA/	.	4AA/	.	.	4a/	.	4cc#\	.	.	.	.	.
4r	.	4r	.	.	4r	.	4r	.	.	.	.	.
=54	=54	=54	=54	=54	=54	=54	=54	=54	=54	=54	=54	=54
4E|\	.	4E\	.	.	8g#/	.	8b\	.	.	.	.	.
.	.	.	.	.	4cc#\	.	4ee\	.	.	.	.	.
4E|\	.	4E\	.	.	.	.	.	.	.	.	.	.
.	.	.	.	.	4b/	.	4dd\	.	.	.	.	.
4E|\	.	4E\	.	.	.	.	.	.	.	.	.	.
.	.	.	.	.	8a/	.	8cc#\	.	.	.	.	.
4E|\	.	4E\	.	.	8g#/	.	8b\	.	.	.	.	.
.	.	.	.	.	4cc#\	.	4ee\	.	.	.	.	.
4E|\	.	4E\	.	.	.	.	.	.	.	.	.	.
.	.	.	.	.	4b/	.	4dd\	.	.	.	.	.
4E|\	.	4E\	.	.	.	.	.	.	.	.	.	.
.	.	.	.	.	8a/	.	8cc#\	.	.	.	.	.
=55	=55	=55	=55	=55	=55	=55	=55	=55	=55	=55	=55	=55
4E\	7	4E\	.	.	8b/L	.	8dd\L	.	.	.	.	.
.	.	.	.	.	8g#/J	.	8b\J	.	.	.	.	.
4A\	3	4A\	.	.	4a/	.	4cc#\	.	.	.	.	.
4r	.	4r	.	.	4r	.	4r	.	.	.	.	.
4A\	.	4A\	.	.	4cc#\	.	4ee\	.	.	.	.	.
4r	.	4r	.	.	4dd\	.	4ff#\	.	.	.	.	.
4r	.	4r	.	.	4cc#\	.	4ee\	.	.	.	.	.
=56	=56	=56	=56	=56	=56	=56	=56	=56	=56	=56	=56	=56
4D/	.	4D/	.	.	4dd\	.	4ff#\	.	.	.	.	.
4r	.	4r	.	.	8r	.	8r	.	.	.	.	.
.	.	.	.	.	8e/L	.	8g/L	.	.	.	.	.
4r	.	4r	.	.	8f#/	.	8a/	.	.	.	.	.
.	.	.	.	.	8b/J	.	8dd\J	.	.	.	.	.
4r	.	4r	.	.	8a/L	.	8cc#\L	.	.	.	.	.
.	.	.	.	.	8g#/J	.	8b\J	.	.	.	.	.
4E\	4	4E\	.	.	4.g#/	.	4.b/	.	.	.	.	.
4EE/	3	4EE/	.	.	.	.	.	.	.	.	.	.
.	.	.	.	.	8a/	.	8a/	.	.	.	.	.
=57	=57	=57	=57	=57	=57	=57	=57	=57	=57	=57	=57	=57
!!LO:TX:a:B:t=:mod=Fine
!	!	!	!	!	!	!	!	!	!	!	!LO:MO:mod=!null:null	!
!	!	!	!	!	!	!	!	!	!	!	!LO:N:vis=2	!
!LO:TX:b:t=finis:mod=	!	!LO:TX:b:t=finis:mod=	!	!	!LO:TX:b:t=finis:mod=	!	!LO:TX:b:t=finis:mod=	!	!LO:TX:b:t=finis:mod=	!	!LO:TX:b:t=finis:mod=	!
!!LO:MO:ori
4AA;/	.	4AA;/	.	.	2a;/	.	2a;/	.	0.r;	.	2.r;	.
*>B	*	*>B	*	*	*>B	*	*>B	*	*>B	*	*>B	*
!!LO:TX:a:B:t= :mod=Andante
!LO:TX:b:t=andante:mod=	!	!LO:TX:b:t=andante:mod=	!	!	!	!	!	!	!	!	!	!
4A\	3_	4A\	.	.	.	.	.	.	.	.	.	.
4G#\	.	4G#\	.	.	4r	.	4r	.	.	.	.	.
!	!	!	!	!	!LO:MO:mod=!null:null	!	!LO:MO:mod=!null:null	!	!	!	!	!
!LO:TX:b:i:t=Alto.:mod=	!	!	!	!	!LO:N:vis=2	!	!LO:N:vis=2	!	!	!	!	!
2F#\	.	2F#\	.	.	2.r	.	2.r	.	.	.	4f#\	O
.	.	.	.	.	.	.	.	.	.	.	4a\	dig-
4E#X\	6	4E#X\	.	.	.	.	.	.	.	.	4g#\	-ne
=58	=58	=58	=58	=58	=58	=58	=58	=58	=58	=58	=58	=58
*custos:C#	*	*	*	*	*	*	*	*	*	*	*	*
!	!	!	!	!	!LO:TX:a:t=9:mod=	!	!	!	!	!	!	!
!	!	!	!	!	!LO:TX:b:t=andante:mod=	!	!LO:TX:b:t=andante:mod=	!	!	!	!	!
2.D/	7_	2.D/	7_	.	00.r	.	00.r	.	.	.	8f#\L	lau-
.	.	.	.	.	.	.	.	.	.	.	8cc#\	.
.	6	.	6	.	.	.	.	.	.	.	8b\	.
.	.	.	.	.	.	.	.	.	.	.	8a\J	.
.	.	.	.	.	.	.	.	.	.	.	8g#\L	-ro
.	.	.	.	.	.	.	.	.	.	.	8f#\J	.
!LO:LB:g=original	!	!	!	!	!	!	!	!	!	!	!	!
2.C#/	#4r	2.C#/	.	.	.	.	.	.	.	.	4.f#\	par-
.	.	.	.	.	.	.	.	.	.	.	8e#X\	-vu-
.	.	.	.	.	.	.	.	.	.	.	4e#\	-le
!!LO:MO:mod
!! *>B	*	*>B	*	*	*>B	*	*>B	*	*>B	*	*>B	*
!! 4AA;/	.	4AA;/	.	.	2a;/	.	2a;/	.	1.r;	.	2.r;	.
!! !!LO:TX:a:B:t=Andante
!! 4A\	3_	4A\	.	.	.	.	.	.	.	.	.	.
!! 4G#\	.	4G#\	.	.	4r	.	4r	.	.	.	.	.
!! 2F#\	.	2F#\	.	.	2.r	.	2.r	.	.	.	4f#\	O
!! .	.	.	.	.	.	.	.	.	.	.	4a\	dig-
!! 4E#X\	6	4E#X\	.	.	.	.	.	.	.	.	4g#\	-ne
!! =58	=58	=58	=58	=58	=58	=58	=58	=58	=58	=58	=58	=58
!! 2.D/	7_	2.D/	7_	.	00.r	.	00.r	.	1.r	.	8f#\L	lau-
!! .	.	.	.	.	.	.	.	.	.	.	8cc#\	.
!! .	6	.	6	.	.	.	.	.	.	.	8b\	.
!! .	.	.	.	.	.	.	.	.	.	.	8a\J	.
!! .	.	.	.	.	.	.	.	.	.	.	8g#\L	-ro
!! .	.	.	.	.	.	.	.	.	.	.	8f#\J	.
!! 2.C#/	#4r	2.C#/	.	.	.	.	.	.	.	.	4.f#\	par-
!! .	.	.	.	.	.	.	.	.	.	.	8e#X\	-vu-
!! .	.	.	.	.	.	.	.	.	.	.	4e#\	-le
!!LO:MO:end
=59	=59	=59	=59	=59	=59	=59	=59	=59	=59	=59	=59	=59
!	!	!	!	!	!	!	!	!	!LO:TX:b:t=andante:mod=	!	!	!
!LO:TX:b:i:t=Tenore.:mod=	!	!	!	!	!	!	!	!	!	!	!LO:N:vis=1	!
2F#\	.	2F#\	.	.	.	.	.	.	4f#\	Ro-	2.r	.
.	.	.	.	.	.	.	.	.	4c#\	-sis	.	.
4G#\	#	4G#\	.	.	.	.	.	.	4B#X\	que	.	.
!	!	!	!	!	!	!	!	!	!	!	!LO:N:vis=2	!
8A\L	.	8A\L	.	.	.	.	.	.	4c#\	di-	2.r	.
8G#\J	.	8G#\J	.	.	.	.	.	.	.	.	.	.
2F#\	6|	2F#\	.	.	.	.	.	.	8f#\L	-gne	.	.
.	.	.	.	.	.	.	.	.	8e\	.	.	.
.	.	.	.	.	.	.	.	.	8d#X\	.	.	.
.	.	.	.	.	.	.	.	.	8c#\J	.	.	.
=60	=60	=60	=60	=60	=60	=60	=60	=60	=60	=60	=60	=60
2G#\	4	2G#\	.	.	.	.	.	.	4.c#\	le-	2.ryy	.
.	.	.	.	.	.	.	.	.	8B#X\	-ctu-	.	.
8G#\L	#_	8G#\L	.	.	.	.	.	.	4B#\	-le	.	.
8F#\J	.	8F#\J	.	.	.	.	.	.	.	.	.	.
!LO:TX:b:i:t=A.T.:mod=	!	!	!	!	!	!	!	!	!	!	!	!
2E\	.	2E\	.	.	.	.	.	.	8e\L	sed	8a\L	Sed
.	.	.	.	.	.	.	.	.	8g#\J	.	8b\J	.
.	.	.	.	.	.	.	.	.	8f#\	nec	8a\	nec
*	*	*	*	*	*	*	*	*	*	*	*custos:a	*
.	.	.	.	.	.	.	.	.	8e\	ro-	8g#\	ro-
!	!	!	!	!	!	!	!	!	!	!	!LO:LB:g=original	!
4r	.	4r	.	.	.	.	.	.	4f#\	-sis	4a\	-sis
!	!	!LO:LB:g=original	!	!	!	!	!	!	!	!	!	!
=61	=61	=61	=61	=61	=61	=61	=61	=61	=61	=61	=61	=61
2BB/	7 #	2BB/	.	.	.	.	.	.	8d#X\L	nec	8f#\L	nec
.	.	.	.	.	.	.	.	.	8f#\J	.	8a\J	.
.	.	.	.	.	.	.	.	.	8e\	vi-	8g#\	vi-
!	!	!	!	!	!	!	!	!	!LO:SIC:v:s=8d#	!	!	!
.	.	.	.	.	.	.	.	.	8d#X\	-o-	8f#\	-o-
*	*	*	*	*	*	*	*	*	*custos:B#	*	*	*
4r	.	4r	.	.	.	.	.	.	4e\	-lis	4g#\	-lis
!	!	!	!	!	!	!	!	!	!	!	!LO:MO:mod=!null:null	!
!	!	!	!	!	!	!	!	!	!LO:LB:g=original	!	!LO:N:vis=2	!
4G#\	#	4G#\	.	.	.	.	.	.	4B#X\	or-	2.r	.
4E\	6	4E\	.	.	.	.	.	.	4c#\	-na-	.	.
!	!	!	!	!	!	!	!	!	!LO:SIC:v:s=4d#	!	!	!
4BB#X/	6	4BB#X/	.	.	.	.	.	.	4d#X\	-te	.	.
=62	=62	=62	=62	=62	=62	=62	=62	=62	=62	=62	=62	=62
4C#/	-	4C#/	.	.	00.r	.	00.r	.	2e\	nec	4g#\	or-
4r	.	4r	.	.	.	.	.	.	.	.	4a#X\	-na-
4r	.	4r	.	.	.	.	.	.	4d#X\	.	4b#X\	-te
4C#/	3	4C#/	.	.	.	.	.	.	4e\	or-	2.cc#\	nec
4D#X\	3	4D#X/	.	.	.	.	.	.	4f#\	-na-	.	.
4E\	3	4E\	.	.	.	.	.	.	4g#\	-te	.	.
=63	=63	=63	=63	=63	=63	=63	=63	=63	=63	=63	=63	=63
2.F#\	-	2.F#\	.	.	.	.	.	.	8r	.	2.a\	nec
.	.	.	.	.	.	.	.	.	8c#\	or-	.	.
.	.	.	.	.	.	.	.	.	8f#\L	-na-	.	.
.	.	.	.	.	.	.	.	.	8e\J	.	.	.
.	.	.	.	.	.	.	.	.	8d#X\L	-te	.	.
.	.	.	.	.	.	.	.	.	8c#\J	.	.	.
2.G#\	#	2.G#\	.	.	.	.	.	.	2.B#X\	nec	8r	.
.	.	.	.	.	.	.	.	.	.	.	8d#X\	or-
.	.	.	.	.	.	.	.	.	.	.	8g#\L	-na-
.	.	.	.	.	.	.	.	.	.	.	8f#\J	.
.	.	.	.	.	.	.	.	.	.	.	8e\L	-te
!	!	!	!	!	!	!	!	!	!	!	!LO:SIC:v:s=8d#J	!
.	.	.	.	.	.	.	.	.	.	.	8d#X\J	.
=64	=64	=64	=64	=64	=64	=64	=64	=64	=64	=64	=64	=64
4C#/	-_	4C#/	.	.	.	.	.	.	2c#\	nec	2e\	nec
4D#X/	.	4D#X/	.	.	.	.	.	.	.	.	.	.
4E\	.	4E\	.	.	.	.	.	.	4c#\	li-	4e\	li-
4F#\	6| 5	4F#\	.	.	.	.	.	.	2B#X\	-li-	2d#X\	-li-
4G#\	4	4G#\	.	.	.	.	.	.	.	.	.	.
4GG#/	#	4GG#/	.	.	.	.	.	.	4c#\	-o-	4c#/	-o-
=65	=65	=65	=65	=65	=65	=65	=65	=65	=65	=65	=65	=65
2C#/	.	2C#/	.	.	.	.	.	.	2c#\	-lis	2c#/	-lis
4r	.	4r	.	.	.	.	.	.	4f#\	nec	4a\	nec
!LO:MO:mod=!null:null	!	!LO:MO:mod=!null:null	!	!	!	!	!	!	!	!	!	!
!LO:N:vis=2	!	!LO:N:vis=2	!	!	!	!	!	!	!	!	!	!
2.r	.	2.r	.	.	.	.	.	.	4.e\	li-	4.g#\	li-
.	.	.	.	.	.	.	.	.	8B#X\L	.	8d#X\L	.
.	.	.	.	.	.	.	.	.	8c#\	.	8e\	.
.	.	.	.	.	.	.	.	.	8d#X\J	.	8f#\J	.
=66	=66	=66	=66	=66	=66	=66	=66	=66	=66	=66	=66	=66
!	!	!	!	!	!LO:TX:a:t=Da Capo:mod=	!	!LO:TX:a:t=Da Capo:mod=	!	!	!	!	!
4F#\	7 5	4F#\	.	.	1.r	.	1.r	.	8c#\L	.	8e\L	.
*	*	*	*	*	*	*	*	*	*	*	*custos:d#	*
.	.	.	.	.	.	.	.	.	8B#X\J	.	8d#X\J	.
!	!	!	!	!	!	!	!	!	!	!	!LO:LB:g=original	!
4G#\	4	4G#\	.	.	.	.	.	.	4.B#\	-li-	4.d#X\	-li-
4GG#/	#	4GG#/	.	.	.	.	.	.	.	.	.	.
.	.	.	.	.	.	.	.	.	8c#\	-o-	8c#/	-o-
!LO:LB:g=original	!	!	!	!	!	!	!	!	!	!	!	!
2C#/	.	2C#/	.	.	.	.	.	.	2c#\	-lis	2c#/	-lis
4r	.	4r	.	.	.	.	.	.	4r	.	4r	.
!!LO:TX:a:B:t=:mod=Da Capo al Fine
!LO:TX:a:t=Da Capo:mod=	!	!LO:TX:a:t=Da Capo:mod=	!	!	!	!	!	!	!LO:TX:a:t=Da\nCapo:mod=	!	!LO:TX:a:t=Da Capo:mod=	!
==	==	==	==	==	==	==	==	==	==	==	==	==
*-	*-	*-	*-	*-	*-	*-	*-	*-	*-	*-	*-	*-
!!!system-decoration: [(g1)][(g2)]<s6>
!!!RDF**kern: > = above
!!!RDF**kern: < = below
!!!RDF**kern: | = vertical stroke
!!!filter-modern: shed -X dynam -e "s/:a/:A/LX" | sic -sq | modori -m | autostem -r | tie -s | shed -k -e "s/[<>]//g" | shed -e "s/yy//" | shed -e "s/^custos:/Xcustos:/I"
!!!ENC: Andrzej Gręziak
!!!END: 2020-07-31
!!!EED: Jan Barakat
!!!EEV: 2022-03-09
!!!ENC-modern: Andrzej Kubiczek
!!!END-modern: 2022-06-11
